X: 1
T: Miss Leslie Cunningham
C: Muriel Johnstone
R: strathspey
B:
Z: 2004 John Chambers <jc:trillian.mit.edu>
M: C
L: 1/8
K: Am
E2 \
| "Am"A>^G A>B c2 c>e | "G"d<B g>e d>B G<B | "Am"A>^G A>B c>B c>d | "E7"e>f e/d/c/B/ "Am"c<A A>E |
| "Am"A>^G A>B c2 c>e | "G"d<B g>e d>B G<B | "F"A<a g>f "Am"e>c A>F | "E7"E>D B,<C "Am"A,2 |]
A2 \
| "Am"(3cde a>c' "G"b<g g2 | "F"a>g f>a "C"g<e e2 | "F"A,>B, C>D "Am"E<A A>c |  "E7"e>f e/d/c/B/ "Am"c<A A2 |
| "Am"(3cde a>c' "G"b<g g2 | "F"a>g f>a "C"g<e e2 | "F"A>B c>d "Am"e<A A>F | "E7"E>D B,<C "Am"A,2 |]
